X:29
T:Beaumont Rag - Gimble - Nikora
C:
N:TablEdited by Jim Nikora
L:1/8
Q:1/4=212
M:4/4
K:F
z6 d2 | "C7"bz7/1 | (3bge {d}e6 | "F"c2 a6 | z2 c=B _BA3 | "C7"(3cz_d =d2 BA2G | 
zc2A z3E | "F"zE2E E2 EE | zE2E EE EE | "C7"FF zD AA FF | BB AA Bc eg | "F"b_a =af dc _gz | 
"F7"_ec de cA GF | "Bb"B,B DF "Bdim7"_A=B cB | "F"(3cdc Ac "D7"ed (3fgf | "C7"ed cB AG EG | 
"F"[F8C8] | 


